X: 41505
T: Uist
R: reel
M: 4/4
K: Amixolydian
(3DDD F>D (3DDD d>A|B>cB>c E>FG>E|(3DDD F>D (3DDD d>A|B>cE>G A>DD>:|
d>AA>d (3FFF d>A|B>cB>c E>FG>E|1 d>AA>d (3FFF d>A|B>cE>G A>DD>:|
2 F>DA>D (AAA B>c|E>CE>G A>DD>||
~A2 c>A ~A2 a>e|f>gf>g B>cd>B|~A2 c>A ~A2 a>e|f>gB>d e>AA>:|
a>ee>a ~c2 a>e|f>gf>g B>cd>B|1 a>ee>a ~c2 a>e|f>gB>d e>A>A:|
2 c>Ae>A ~e2 f>g|B>GB>d e>AA>||

